ix/danger_linear.svg

<svg viewBox="0 0 24 24" fill="none" xmlns="http://www.w3.org/2000/svg" height="1em" width="1em">
  <path d="M12 9V14" stroke="#292D32" stroke-width="1.5" stroke-linecap="round" stroke-linejoin="round"/>
  <path d="M12.0001 21.41H5.94005C2.47005 21.41 1.02005 18.93 2.70005 15.9L5.82006 10.28L8.76006 5.00003C10.5401 1.79003 13.4601 1.79003 15.2401 5.00003L18.1801 10.29L21.3001 15.91C22.9801 18.94 21.5201 21.42 18.0601 21.42H12.0001V21.41Z" stroke="#292D32" stroke-width="1.5" stroke-linecap="round" stroke-linejoin="round"/>
  <path d="M11.9945 17H12.0035" stroke="#292D32" stroke-width="2" stroke-linecap="round" stroke-linejoin="round"/>
</svg>

<svg viewBox="0 0 24 24" fill="none" xmlns="http://www.w3.org/2000/svg" height="1em" width="1em">
  <path d="M12 9v5m0 7.41H5.94c-3.47 0-4.92-2.48-3.24-5.51l3.12-5.62L8.76 5c1.78-3.21 4.7-3.21 6.48 0l2.94 5.29 3.12 5.62c1.68 3.03.22 5.51-3.24 5.51H12v-.01Z" stroke="#292D32" stroke-width="1.5" stroke-linecap="round" stroke-linejoin="round"/>
  <path d="M11.995 17h.009" stroke="#292D32" stroke-width="2" stroke-linecap="round" stroke-linejoin="round"/>
</svg>
